X: 232
T:Pretty Cotillion,A. JaW.231
M:C|
L:1/8
Q:200
S:James Winder Ms, Lancashire, 1835-41
R:Cotillion
O:England
A:Wyresdale,Lancashire
H:1/8
Z:vmp.Chris Partington, Aug 2004
K:G
G2B2 d2g2|fgaf d4|A2c2 BdBG|AcAF G4:|!
|:G2G2 A2A2|d2dG F2ED|G2G2A2A2|d2D2 G4:|!
|:G2B2 AGFE|D2dc B4|G2B2 AGFE|D2EF G4:|!
